X:1
T:Hopkins, LM
T:Edwin George Monk (1819-1900)
T:Hopkins, LM
T:Public Domain
C:Edwin George Monk (1819-1900)
Z:Public Domain
%%score ( 1 2 ) ( 3 4 )
L:1/8
M:4/4
K:F
V:1 treble 
V:2 treble 
V:3 bass 
V:4 bass 
V:1
!mf! [CF]2 | [FA]4 A2 G2 | c4 B2 [EA]2 | D4 z2 A2 x2 | [GB]6 [GB]2 | A2 ^F2 z2 B2 x2 | %6
 G2 E2 z2 A2 x2 | F2 A2 G2 F2 | [Ec]6 [Ec]2 | c2 e2 d2 c2 | [A=B]4 [GB]4 x2 | A2 c2 =B2 A2 | %12
 F4 E2 [Fc]2 | [Fd]4 [Ge]2 [Ff]2 | f2 c2 [FB]2 [_EA]2 | [Dd]4 [CE]4 | [CF]8 |] %17
V:2
 x2 | x4 c4 | F6 x2 | G6 E4 | x8 | d6 G4 | c6 F4 | f4 =B4 | x8 | A4 A4 | x10 | G4 F4 | G6 x2 | x8 | %14
 F4 x4 | x8 | x8 |] %17
V:3
 [F,A,]2 | [F,C]4 F,2 E,2 | [D,F,]6 [C,B,]2 | [B,,D]4 [C,C]4 x2 | [G,,D]6 [G,D]2 | %5
 ^F,2 D,2 B,2 D2 x2 | E,2 C,2 A,2 C2 x2 | [D,D]4 [G,D]4 | [C,C]6 [CE]2 | [A,E]4 [CE]4 | %10
 z4 z2 D2 x2 | [F,C]4 [A,C]4 | C6 [A,C]2 | z2 A,2 G,2 [D,A,]2 | C2 A,2 [D,B,]2 [C,C]2 | %15
 D2 G,2 A,2 B,2 | [F,A,]8 |] %17
V:4
 x2 | x4 C4 | x8 | x10 | x8 | D4 G,4 x2 | C4 F,4 x2 | x8 | x8 | x8 | E6 E,4 | x8 | x8 | B,4 x4 | %14
 _E,4 x4 | B,,4 C,4 | x8 |] %17

